X: 33427
T: Quinie Fae Rhynie, The
R: reel
M: 4/4
K: Dmajor
B2dB A2de|feee fedA|B2dB A2fg|afeg fedA
B2dB A2de|feee fedA|B2dB A2fg|afeg fdef|
g3a gfeg|f3g fedf|e3f ecAc|dAde fdef|
g3a gfeg|f3g fedf|e3f ecAc|dAfe d2ef|

